packages/blockchain-info-components/src/Images/img/banks/bank-logo-chase.svg

<svg fill="none" height="32" viewBox="0 0 32 32" width="32" xmlns="http://www.w3.org/2000/svg"><g fill="#117aca"><path d="m12.585 4c-.4681 0-.8473.37932-.8473.84705v5.94075h15.6884l-7.1445-6.78725z"/><path d="m28.0001 12.5851c0-.4688-.3765-.8465-.8474-.8465h-5.9375v15.6933l6.7821-7.1497z"/><path d="m19.416 28c.4671 0 .8463-.3798.8463-.8487v-5.9386h-15.68902l7.14552 6.7862z"/><path d="m4 19.4159c0 .4682.37921.8497.84845.8497h5.93645v-15.69433l-6.78381 7.14753z"/></g></svg>

<svg width="32" height="32" viewBox="0 0 32 32" fill="none" xmlns="http://www.w3.org/2000/svg">
<path d="M12.585 4C12.1169 4 11.7377 4.37932 11.7377 4.84705V10.7878H27.4261L20.2816 4.00055L12.585 4Z" fill="#117ACA"/>
<path d="M28.0001 12.5851C28.0001 12.1163 27.6236 11.7386 27.1527 11.7386H21.2152V27.4319L27.9973 20.2822L28.0001 12.5851Z" fill="#117ACA"/>
<path d="M19.416 28C19.8831 28 20.2623 27.6202 20.2623 27.1513V21.2127H4.57328L11.7188 27.9989L19.416 28Z" fill="#117ACA"/>
<path d="M4 19.4159C4 19.8841 4.37921 20.2656 4.84845 20.2656H10.7849V4.57127L4.00109 11.7188L4 19.4159Z" fill="#117ACA"/>
</svg>
